components/Common/Svg/svgs/instagram.svg

<svg
  width="48"
  height="49"
  viewBox="0 0 48 49"
  fill="none"
  xmlns="http://www.w3.org/2000/svg"
>
  <path
    d="M23.9336 19.2974C20.8317 19.2974 18.3296 21.7995 18.3296 24.9014C18.3296 28.0034 20.8317 30.5054 23.9336 30.5054C27.0356 30.5054 29.5376 28.0034 29.5376 24.9014C29.5376 21.7995 27.0356 19.2974 23.9336 19.2974ZM23.9336 28.5447C21.9291 28.5447 20.2903 26.9108 20.2903 24.9014C20.2903 22.892 21.9242 21.2581 23.9336 21.2581C25.9431 21.2581 27.577 22.892 27.577 24.9014C27.577 26.9108 25.9382 28.5447 23.9336 28.5447ZM31.074 19.0682C31.074 19.7949 30.4887 20.3753 29.7668 20.3753C29.0401 20.3753 28.4597 19.79 28.4597 19.0682C28.4597 18.3464 29.045 17.7611 29.7668 17.7611C30.4887 17.7611 31.074 18.3464 31.074 19.0682ZM34.7856 20.3948C34.7026 18.6439 34.3027 17.0929 33.02 15.815C31.7421 14.5372 30.1912 14.1373 28.4402 14.0495C26.6356 13.9471 21.2267 13.9471 19.4221 14.0495C17.6761 14.1324 16.1251 14.5323 14.8424 15.8102C13.5597 17.088 13.1646 18.639 13.0768 20.3899C12.9744 22.1945 12.9744 27.6034 13.0768 29.408C13.1597 31.1589 13.5597 32.7099 14.8424 33.9878C16.1251 35.2656 17.6712 35.6655 19.4221 35.7533C21.2267 35.8558 26.6356 35.8558 28.4402 35.7533C30.1912 35.6704 31.7421 35.2705 33.02 33.9878C34.2978 32.7099 34.6978 31.1589 34.7856 29.408C34.888 27.6034 34.888 22.1994 34.7856 20.3948ZM32.4542 31.3443C32.0738 32.3002 31.3373 33.0367 30.3765 33.422C28.9377 33.9926 25.5236 33.861 23.9336 33.861C22.3436 33.861 18.9247 33.9878 17.4907 33.422C16.5348 33.0416 15.7983 32.3051 15.413 31.3443C14.8424 29.9055 14.9741 26.4914 14.9741 24.9014C14.9741 23.3114 14.8473 19.8924 15.413 18.4585C15.7935 17.5026 16.5299 16.7661 17.4907 16.3808C18.9295 15.8102 22.3436 15.9419 23.9336 15.9419C25.5236 15.9419 28.9426 15.815 30.3765 16.3808C31.3325 16.7612 32.0689 17.4977 32.4542 18.4585C33.0249 19.8973 32.8932 23.3114 32.8932 24.9014C32.8932 26.4914 33.0249 29.9104 32.4542 31.3443Z"
    fill="currentColor"
  ></path>
  <circle
    opacity="0.3"
    cx="24"
    cy="24.9727"
    r="23.5"
    stroke="currentColor"
  ></circle>
</svg>

<svg width="48" height="49" viewBox="0 0 48 49" fill="none" xmlns="http://www.w3.org/2000/svg"><path d="M23.934 19.297a5.595 5.595 0 0 0-5.604 5.604 5.595 5.595 0 0 0 5.604 5.604 5.595 5.595 0 0 0 5.604-5.604 5.595 5.595 0 0 0-5.604-5.604Zm0 9.248A3.65 3.65 0 0 1 20.29 24.9a3.647 3.647 0 0 1 3.644-3.643 3.647 3.647 0 0 1 3.643 3.643 3.65 3.65 0 0 1-3.643 3.644Zm7.14-9.477c0 .727-.585 1.307-1.307 1.307a1.307 1.307 0 1 1 1.307-1.307Zm3.712 1.327c-.083-1.751-.483-3.302-1.766-4.58-1.278-1.278-2.829-1.678-4.58-1.765-1.804-.103-7.213-.103-9.018 0-1.746.082-3.297.482-4.58 1.76-1.282 1.278-1.677 2.829-1.765 4.58-.103 1.805-.103 7.213 0 9.018.083 1.75.483 3.302 1.765 4.58 1.283 1.278 2.83 1.678 4.58 1.765 1.805.103 7.214.103 9.018 0 1.751-.083 3.302-.483 4.58-1.765 1.278-1.278 1.678-2.83 1.766-4.58.102-1.805.102-7.209 0-9.013Zm-2.332 10.95a3.689 3.689 0 0 1-2.078 2.077c-1.438.57-4.852.439-6.442.439-1.59 0-5.01.127-6.443-.439a3.689 3.689 0 0 1-2.078-2.078c-.57-1.439-.439-4.853-.439-6.443 0-1.59-.127-5.009.439-6.442a3.689 3.689 0 0 1 2.078-2.078c1.439-.57 4.853-.44 6.443-.44 1.59 0 5.009-.126 6.442.44a3.688 3.688 0 0 1 2.078 2.078c.57 1.438.44 4.852.44 6.442 0 1.59.13 5.01-.44 6.443Z" fill="currentColor"/><circle opacity=".3" cx="24" cy="24.973" r="23.5" stroke="currentColor"/></svg>
